branches/nugui/src/gui/icons/measure_torsion.svg

<?xml version="1.0" encoding="UTF-8" standalone="no"?>
<!-- Created with Inkscape (http://www.inkscape.org/) -->

<svg
   xmlns:dc="http://purl.org/dc/elements/1.1/"
   xmlns:cc="http://creativecommons.org/ns#"
   xmlns:rdf="http://www.w3.org/1999/02/22-rdf-syntax-ns#"
   xmlns:svg="http://www.w3.org/2000/svg"
   xmlns="http://www.w3.org/2000/svg"
   xmlns:xlink="http://www.w3.org/1999/xlink"
   xmlns:inkscape="http://www.inkscape.org/namespaces/inkscape"
   version="1.0"
   width="100"
   height="100"
   id="svg2">
  <metadata
     id="metadata2566">
    <rdf:RDF>
      <cc:Work
         rdf:about="">
        <dc:format>image/svg+xml</dc:format>
        <dc:type
           rdf:resource="http://purl.org/dc/dcmitype/StillImage" />
      </cc:Work>
    </rdf:RDF>
  </metadata>
  <defs
     id="defs4">
    <linearGradient
       id="linearGradient3187">
      <stop
         id="stop3189"
         style="stop-color:#cccdff;stop-opacity:1"
         offset="0" />
      <stop
         id="stop3191"
         style="stop-color:#cccdca;stop-opacity:0.33333334"
         offset="1" />
    </linearGradient>
    <linearGradient
       id="linearGradient3384">
      <stop
         id="stop3386"
         style="stop-color:#0000ff;stop-opacity:1"
         offset="0" />
      <stop
         id="stop3388"
         style="stop-color:#000000;stop-opacity:1"
         offset="1" />
    </linearGradient>
    <linearGradient
       id="linearGradient3252">
      <stop
         id="stop3254"
         style="stop-color:#ffffff;stop-opacity:1"
         offset="0" />
      <stop
         id="stop3256"
         style="stop-color:#7f7fff;stop-opacity:0"
         offset="1" />
    </linearGradient>
    <linearGradient
       x1="25.398125"
       y1="63.345894"
       x2="90.625114"
       y2="63.345894"
       id="linearGradient3566"
       xlink:href="#linearGradient3384"
       gradientUnits="userSpaceOnUse"
       gradientTransform="matrix(0.2688926,0.2688926,-0.2688926,0.2688926,38.227733,-8.4494346)" />
    <radialGradient
       cx="58.01162"
       cy="63.345894"
       r="33.113495"
       fx="58.01162"
       fy="63.345894"
       id="radialGradient3568"
       xlink:href="#linearGradient3252"
       gradientUnits="userSpaceOnUse"
       gradientTransform="matrix(0.2134373,0,0,0.2134373,19.805211,5.9610473)" />
    <linearGradient
       x1="3.5899789"
       y1="36.400818"
       x2="97.023521"
       y2="36.400818"
       id="linearGradient2257"
       xlink:href="#linearGradient3187"
       gradientUnits="userSpaceOnUse" />
  </defs>
  <path
     d="M 92.54663,41.25526 C 69.83333,41.24329 52.85829,41.23434 21.27022,41.2177 21.28594,28.24564 37.26462,17.72601 56.93691,17.73637 76.6092,17.74674 92.56236,28.2832 92.54663,41.25526 z"
     inkscape:connector-curvature="0"
     id="path3830"
     style="fill:#e6e6e3;fill-opacity:1;fill-rule:evenodd;stroke:#e1e0e6;stroke-width:0.62617165px;stroke-linecap:butt;stroke-linejoin:miter;stroke-opacity:1" />
  <use
     transform="translate(-0.8163265,47.959184)"
     id="use2479"
     x="0"
     y="0"
     width="100"
     height="100"
     xlink:href="#path3830" />
  <path
     d="m 95.61571,19.10343 c 7.3e-4,4.15595 -3.36813,7.52539 -7.52408,7.52539 -4.15595,0 -7.52481,-3.36944 -7.52408,-7.52539 -7.3e-4,-4.15595 3.36813,-7.5254 7.52408,-7.5254 4.15595,0 7.52481,3.36945 7.52408,7.5254 l 0,0 z"
     inkscape:connector-curvature="0"
     id="path3876"
     style="fill:#e6e6e3;fill-opacity:1;fill-rule:evenodd;stroke:#e1e0e6;stroke-width:0.23070447px;stroke-linecap:butt;stroke-linejoin:miter;stroke-opacity:1" />
  <use
     transform="translate(-30.816327,23.469388)"
     id="use2473"
     x="0"
     y="0"
     width="100"
     height="100"
     xlink:href="#path3876" />
  <use
     transform="matrix(1.1602579,0,0,1.1602579,-76.158403,44.081383)"
     id="use2475"
     x="0"
     y="0"
     width="100"
     height="100"
     xlink:href="#path3876" />
  <use
     transform="matrix(1.1201934,0,0,1.1201934,-41.506558,70.050834)"
     id="use2477"
     x="0"
     y="0"
     width="100"
     height="100"
     xlink:href="#path3876" />
  <path
     d="M 27.08733,67.18953 C 55.51219,91.124432 55.51119,91.123586 55.51119,91.123586"
     inkscape:connector-curvature="0"
     id="path3824"
     style="fill:none;stroke:#e1e0e6;stroke-width:3;stroke-linecap:round;stroke-linejoin:miter;stroke-miterlimit:4;stroke-opacity:1;stroke-dasharray:6, 3;stroke-dashoffset:0" />
  <path
     d="M 87.51803,19.23973 C 56.0998,43.35995 56.10091,43.3591 56.10091,43.3591"
     inkscape:connector-curvature="0"
     id="path3826"
     style="fill:none;stroke:#e1e0e6;stroke-width:2.5;stroke-linecap:round;stroke-linejoin:miter;stroke-miterlimit:4;stroke-opacity:1;stroke-dasharray:5, 2.5;stroke-dashoffset:0" />
  <path
     d="m 57.01741,51.65763 c 0,29.438734 0,29.437703 0,29.437703"
     inkscape:connector-curvature="0"
     id="path3854"
     style="fill:#e6e6e3;fill-opacity:1;fill-rule:evenodd;stroke:#e1e0e6;stroke-width:3;stroke-linecap:round;stroke-linejoin:miter;stroke-miterlimit:4;stroke-opacity:1;stroke-dasharray:6, 3;stroke-dashoffset:0" />
  <path
     d="m 48.269164,44.235769 c 0,29.438731 0,29.4377 0,29.4377"
     inkscape:connector-curvature="0"
     id="path3818"
     style="fill:none;stroke:#000000;stroke-width:3;stroke-linecap:round;stroke-linejoin:miter;stroke-miterlimit:4;stroke-opacity:1;stroke-dasharray:6, 3;stroke-dashoffset:0" />
  <g
     transform="matrix(0.7711099,4.0640796e-4,-6.163229e-4,0.5084757,9.4048258,3.5351817)"
     id="g2239">
    <path
       d="m 96.52352,59.509204 c -29.455343,0 -51.469115,0 -92.433541,0 0,-25.511657 20.705113,-46.21677 46.21677,-46.21677 25.511657,0 46.216771,20.705113 46.216771,46.21677 z"
       inkscape:connector-curvature="0"
       id="path2241"
       style="fill:url(#linearGradient2257);fill-opacity:1;fill-rule:evenodd;stroke:#000000;stroke-width:1px;stroke-linecap:butt;stroke-linejoin:miter;stroke-opacity:1" />
    <path
       d="M 49.946865,59.191757 16.406253,44.970273 m 33.828912,13.928004 0.07159,-36.986598 M 50.611846,59.057108 84.207245,44.970273 M 87.000381,59.26463 49.946865,59.337502 13.613118,59.26463 M 24.360434,32.852106 50.10289,58.954052 36.264704,24.755004 m 28.084091,0 L 50.51061,58.954052 76.253065,32.852106"
       inkscape:connector-curvature="0"
       id="path2243"
       style="fill:none;stroke:#000000;stroke-width:0.64609098;stroke-linecap:round;stroke-linejoin:round;stroke-miterlimit:4;stroke-opacity:1;stroke-dasharray:none;stroke-dashoffset:0" />
    <text
       x="16.601501"
       y="32.732803"
       id="text2245"
       xml:space="preserve"
       style="font-size:6.36857796px;font-style:normal;font-weight:normal;fill:#000000;fill-opacity:1;stroke:none;font-family:Bitstream Vera Sans"><tspan
         x="16.601501"
         y="32.732803"
         id="tspan2247">45</tspan></text>
    <text
       x="45.530113"
       y="19.400709"
       id="text2249"
       xml:space="preserve"
       style="font-size:6.36857796px;font-style:normal;font-weight:normal;fill:#000000;fill-opacity:1;stroke:none;font-family:Bitstream Vera Sans"><tspan
         x="45.530113"
         y="19.400709"
         id="tspan2251">90</tspan></text>
    <text
       x="72.773872"
       y="32.981483"
       id="text2253"
       xml:space="preserve"
       style="font-size:6.36857796px;font-style:normal;font-weight:normal;fill:#000000;fill-opacity:1;stroke:none;font-family:Bitstream Vera Sans"><tspan
         x="72.773872"
         y="32.981483"
         id="tspan2255">135</tspan></text>
  </g>
  <use
     transform="translate(0.2040816,48.367347)"
     id="use2471"
     x="0"
     y="0"
     width="100"
     height="100"
     xlink:href="#g2239" />
  <path
     d="m 18.339092,59.767662 c 28.42486,23.934906 28.423856,23.93406 28.423856,23.93406"
     inkscape:connector-curvature="0"
     id="path3820"
     style="fill:none;stroke:#000000;stroke-width:3;stroke-linecap:round;stroke-linejoin:miter;stroke-miterlimit:4;stroke-opacity:1;stroke-dasharray:6, 3;stroke-dashoffset:0" />
  <path
     d="M 78.769786,11.817867 C 47.351554,35.938086 47.352664,35.937234 47.352664,35.937234"
     inkscape:connector-curvature="0"
     id="path3822"
     style="fill:none;stroke:#000000;stroke-width:2.5;stroke-linecap:round;stroke-linejoin:miter;stroke-miterlimit:4;stroke-opacity:1;stroke-dasharray:5, 2.5;stroke-dashoffset:0" />
  <g
     transform="matrix(0.6066835,0,0,0.6066835,57.099469,-3.0176416)"
     id="g3558">
    <path
       d="m 49.066773,24.22879 c 0.0012,6.850275 -5.551709,12.404157 -12.401985,12.404157 -6.850275,0 -12.403184,-5.553882 -12.401985,-12.404157 -0.0012,-6.850276 5.55171,-12.404157 12.401985,-12.404157 6.850276,0 12.403184,5.553881 12.401985,12.404157 l 0,0 z"
       inkscape:connector-curvature="0"
       id="path3560"
       style="fill:#0000ff;fill-opacity:1;fill-rule:evenodd;stroke:#000000;stroke-width:0.38027155px;stroke-linecap:butt;stroke-linejoin:miter;stroke-opacity:1" />
    <path
       d="m 45.562914,32.95223 c -4.843029,4.844723 -12.696715,4.845411 -17.54059,0.0015 -4.843878,-4.843877 -4.843189,-12.697563 0.0015,-17.54059 4.843028,-4.844725 12.696714,-4.845413 17.540591,-0.0015 4.843875,4.843876 4.843187,12.697563 -0.0015,17.540591 l 0,0 z"
       inkscape:connector-curvature="0"
       id="path3562"
       style="opacity:0.71739131;fill:url(#linearGradient3566);fill-opacity:1;fill-rule:evenodd;stroke:none" />
    <path
       d="m 39.147988,19.481422 c 6.73e-4,3.844893 -3.11604,6.962154 -6.960935,6.962154 -3.844894,0 -6.961608,-3.117261 -6.960935,-6.962154 -6.73e-4,-3.844895 3.116041,-6.962154 6.960935,-6.962154 3.844895,0 6.961608,3.117259 6.960935,6.962154 l 0,0 z"
       inkscape:connector-curvature="0"
       id="path3564"
       style="fill:url(#radialGradient3568);fill-opacity:1;fill-rule:evenodd;stroke:none" />
  </g>
  <use
     transform="matrix(1.146903,0,0,1.146903,-74.206995,45.120678)"
     id="use2458"
     x="0"
     y="0"
     width="100"
     height="100"
     xlink:href="#g3558" />
  <use
     transform="matrix(1.146903,0,0,1.146903,-42.778424,70.018637)"
     id="use2460"
     x="0"
     y="0"
     width="100"
     height="100"
     xlink:href="#g3558" />
  <use
     transform="translate(-31.22449,23.265306)"
     id="use2456"
     x="0"
     y="0"
     width="100"
     height="100"
     xlink:href="#g3558" />
</svg>

<?xml version="1.0" encoding="UTF-8" standalone="no"?>
<!-- Created with Inkscape (http://www.inkscape.org/) -->
<svg
   xmlns:dc="http://purl.org/dc/elements/1.1/"
   xmlns:cc="http://web.resource.org/cc/"
   xmlns:rdf="http://www.w3.org/1999/02/22-rdf-syntax-ns#"
   xmlns:svg="http://www.w3.org/2000/svg"
   xmlns="http://www.w3.org/2000/svg"
   xmlns:xlink="http://www.w3.org/1999/xlink"
   xmlns:sodipodi="http://sodipodi.sourceforge.net/DTD/sodipodi-0.dtd"
   xmlns:inkscape="http://www.inkscape.org/namespaces/inkscape"
   version="1.0"
   width="100"
   height="100"
   id="svg2"
   sodipodi:version="0.32"
   inkscape:version="0.45.1"
   sodipodi:docname="measure_torsion.svg"
   sodipodi:docbase="/home/tris/src/aten/src/gui-qt/icons"
   inkscape:output_extension="org.inkscape.output.svg.inkscape">
  <metadata
     id="metadata2566">
    <rdf:RDF>
      <cc:Work
         rdf:about="">
        <dc:format>image/svg+xml</dc:format>
        <dc:type
           rdf:resource="http://purl.org/dc/dcmitype/StillImage" />
      </cc:Work>
    </rdf:RDF>
  </metadata>
  <sodipodi:namedview
     inkscape:window-height="714"
     inkscape:window-width="1024"
     inkscape:pageshadow="2"
     inkscape:pageopacity="0.0"
     guidetolerance="10.0"
     gridtolerance="10.0"
     objecttolerance="10.0"
     borderopacity="1.0"
     bordercolor="#666666"
     pagecolor="#ffffff"
     id="base"
     inkscape:zoom="4.9"
     inkscape:cx="50"
     inkscape:cy="49.897959"
     inkscape:window-x="10"
     inkscape:window-y="75"
     inkscape:current-layer="svg2" />
  <defs
     id="defs4">
    <linearGradient
       id="linearGradient3187">
      <stop
         style="stop-color:#cccdff;stop-opacity:1;"
         offset="0"
         id="stop3189" />
      <stop
         style="stop-color:#cccdca;stop-opacity:0.33333334;"
         offset="1"
         id="stop3191" />
    </linearGradient>
    <linearGradient
       id="linearGradient3384">
      <stop
         style="stop-color:#0000ff;stop-opacity:1;"
         offset="0"
         id="stop3386" />
      <stop
         style="stop-color:#000000;stop-opacity:1"
         offset="1"
         id="stop3388" />
    </linearGradient>
    <linearGradient
       id="linearGradient3252">
      <stop
         style="stop-color:#ffffff;stop-opacity:1"
         offset="0"
         id="stop3254" />
      <stop
         style="stop-color:#7f7fff;stop-opacity:0;"
         offset="1"
         id="stop3256" />
    </linearGradient>
    <linearGradient
       inkscape:collect="always"
       xlink:href="#linearGradient3187"
       id="linearGradient3217"
       gradientUnits="userSpaceOnUse"
       x1="3.589979"
       y1="36.400819"
       x2="97.02352"
       y2="36.400819" />
    <linearGradient
       inkscape:collect="always"
       xlink:href="#linearGradient3384"
       id="linearGradient3554"
       gradientUnits="userSpaceOnUse"
       gradientTransform="matrix(0.2688926,0.2688926,-0.2688926,0.2688926,38.227733,-8.4494346)"
       x1="25.398125"
       y1="63.345894"
       x2="90.625114"
       y2="63.345894" />
    <radialGradient
       inkscape:collect="always"
       xlink:href="#linearGradient3252"
       id="radialGradient3556"
       gradientUnits="userSpaceOnUse"
       gradientTransform="matrix(0.2134373,0,0,0.2134373,19.805211,5.9610473)"
       cx="58.01162"
       cy="63.345894"
       fx="58.01162"
       fy="63.345894"
       r="33.113495" />
    <linearGradient
       inkscape:collect="always"
       xlink:href="#linearGradient3384"
       id="linearGradient3566"
       gradientUnits="userSpaceOnUse"
       gradientTransform="matrix(0.2688926,0.2688926,-0.2688926,0.2688926,38.227733,-8.4494346)"
       x1="25.398125"
       y1="63.345894"
       x2="90.625114"
       y2="63.345894" />
    <radialGradient
       inkscape:collect="always"
       xlink:href="#linearGradient3252"
       id="radialGradient3568"
       gradientUnits="userSpaceOnUse"
       gradientTransform="matrix(0.2134373,0,0,0.2134373,19.805211,5.9610473)"
       cx="58.01162"
       cy="63.345894"
       fx="58.01162"
       fy="63.345894"
       r="33.113495" />
    <linearGradient
       inkscape:collect="always"
       xlink:href="#linearGradient3384"
       id="linearGradient2235"
       gradientUnits="userSpaceOnUse"
       gradientTransform="matrix(0.2688926,0.2688926,-0.2688926,0.2688926,38.227733,-8.4494346)"
       x1="25.398125"
       y1="63.345894"
       x2="90.625114"
       y2="63.345894" />
    <radialGradient
       inkscape:collect="always"
       xlink:href="#linearGradient3252"
       id="radialGradient2237"
       gradientUnits="userSpaceOnUse"
       gradientTransform="matrix(0.2134373,0,0,0.2134373,19.805211,5.9610473)"
       cx="58.01162"
       cy="63.345894"
       fx="58.01162"
       fy="63.345894"
       r="33.113495" />
    <linearGradient
       inkscape:collect="always"
       xlink:href="#linearGradient3187"
       id="linearGradient2257"
       gradientUnits="userSpaceOnUse"
       x1="3.589979"
       y1="36.400819"
       x2="97.02352"
       y2="36.400819" />
    <linearGradient
       inkscape:collect="always"
       xlink:href="#linearGradient3384"
       id="linearGradient2264"
       gradientUnits="userSpaceOnUse"
       gradientTransform="matrix(0.2688926,0.2688926,-0.2688926,0.2688926,38.227733,-8.4494346)"
       x1="25.398125"
       y1="63.345894"
       x2="90.625114"
       y2="63.345894" />
    <radialGradient
       inkscape:collect="always"
       xlink:href="#linearGradient3252"
       id="radialGradient2266"
       gradientUnits="userSpaceOnUse"
       gradientTransform="matrix(0.2134373,0,0,0.2134373,19.805211,5.9610473)"
       cx="58.01162"
       cy="63.345894"
       fx="58.01162"
       fy="63.345894"
       r="33.113495" />
  </defs>
  <path
     style="fill:#e6e6e3;fill-opacity:1;fill-rule:evenodd;stroke:#e1e0e6;stroke-width:0.62617165px;stroke-linecap:butt;stroke-linejoin:miter;stroke-opacity:1"
     d="M 92.54663,41.25526 C 69.83333,41.24329 52.85829,41.23434 21.27022,41.2177 C 21.28594,28.24564 37.26462,17.72601 56.93691,17.73637 C 76.6092,17.74674 92.56236,28.2832 92.54663,41.25526 z "
     id="path3830"
     sodipodi:nodetypes="ccsc" />
  <use
     x="0"
     y="0"
     xlink:href="#path3830"
     id="use2479"
     transform="translate(-0.8163265,47.959184)"
     width="100"
     height="100" />
  <path
     id="path3876"
     style="fill:#e6e6e3;fill-opacity:1;fill-rule:evenodd;stroke:#e1e0e6;stroke-width:0.23070447px;stroke-linecap:butt;stroke-linejoin:miter;stroke-opacity:1"
     d="M 95.61571,19.10343 C 95.61644,23.25938 92.24758,26.62882 88.09163,26.62882 C 83.93568,26.62882 80.56682,23.25938 80.56755,19.10343 C 80.56682,14.94748 83.93568,11.57803 88.09163,11.57803 C 92.24758,11.57803 95.61644,14.94748 95.61571,19.10343 L 95.61571,19.10343 z " />
  <use
     x="0"
     y="0"
     xlink:href="#path3876"
     id="use2473"
     transform="translate(-30.816327,23.469388)"
     width="100"
     height="100" />
  <use
     x="0"
     y="0"
     xlink:href="#path3876"
     id="use2475"
     transform="matrix(1.1602579,0,0,1.1602579,-76.158403,44.081383)"
     width="100"
     height="100" />
  <use
     x="0"
     y="0"
     xlink:href="#path3876"
     id="use2477"
     transform="matrix(1.1201934,0,0,1.1201934,-41.506558,70.050834)"
     width="100"
     height="100" />
  <path
     style="fill:none;fill-rule:evenodd;stroke:#e1e0e6;stroke-width:3;stroke-linecap:round;stroke-linejoin:miter;stroke-miterlimit:4;stroke-dasharray:6, 3;stroke-dashoffset:0;stroke-opacity:1"
     d="M 27.08733,67.18953 C 55.51219,91.124432 55.51119,91.123586 55.51119,91.123586"
     id="path3824" />
  <path
     style="fill:none;fill-rule:evenodd;stroke:#e1e0e6;stroke-width:2.5;stroke-linecap:round;stroke-linejoin:miter;stroke-miterlimit:4;stroke-dasharray:5, 2.5;stroke-dashoffset:0;stroke-opacity:1"
     d="M 87.51803,19.23973 C 56.0998,43.35995 56.10091,43.3591 56.10091,43.3591"
     id="path3826" />
  <path
     style="fill:#e6e6e3;fill-opacity:1;fill-rule:evenodd;stroke:#e1e0e6;stroke-width:3;stroke-linecap:round;stroke-linejoin:miter;stroke-miterlimit:4;stroke-dasharray:6, 3;stroke-dashoffset:0;stroke-opacity:1"
     d="M 57.01741,51.65763 C 57.01741,81.096364 57.01741,81.095333 57.01741,81.095333"
     id="path3854" />
  <path
     style="fill:none;fill-rule:evenodd;stroke:#000000;stroke-width:3;stroke-linecap:round;stroke-linejoin:miter;stroke-miterlimit:4;stroke-dasharray:6, 3;stroke-dashoffset:0;stroke-opacity:1"
     d="M 48.269164,44.235769 C 48.269164,73.6745 48.269164,73.673469 48.269164,73.673469"
     id="path3818" />
  <g
     id="g2239"
     transform="matrix(0.7711099,4.0640796e-4,-6.163229e-4,0.5084757,9.4048258,3.5351817)">
    <path
       sodipodi:nodetypes="ccsc"
       id="path2241"
       d="M 96.52352,59.509204 C 67.068177,59.509204 45.054405,59.509204 4.089979,59.509204 C 4.089979,33.997547 24.795092,13.292434 50.306749,13.292434 C 75.818406,13.292434 96.52352,33.997547 96.52352,59.509204 z "
       style="fill:url(#linearGradient2257);fill-opacity:1;fill-rule:evenodd;stroke:#000000;stroke-width:1px;stroke-linecap:butt;stroke-linejoin:miter;stroke-opacity:1" />
    <path
       sodipodi:nodetypes="ccccccccccccccc"
       id="path2243"
       d="M 49.946865,59.191757 L 16.406253,44.970273 M 50.235165,58.898277 L 50.306751,21.911679 M 50.611846,59.057108 L 84.207245,44.970273 M 87.000381,59.26463 L 49.946865,59.337502 L 13.613118,59.26463 M 24.360434,32.852106 L 50.10289,58.954052 L 36.264704,24.755004 M 64.348795,24.755004 L 50.51061,58.954052 L 76.253065,32.852106"
       style="fill:none;fill-opacity:1;fill-rule:evenodd;stroke:#000000;stroke-width:0.64609098;stroke-linecap:round;stroke-linejoin:round;stroke-miterlimit:4;stroke-dasharray:none;stroke-dashoffset:0;stroke-opacity:1" />
    <text
       id="text2245"
       y="32.732803"
       x="16.601501"
       style="font-size:6.36857796px;font-style:normal;font-weight:normal;fill:#000000;fill-opacity:1;stroke:none;stroke-width:1px;stroke-linecap:butt;stroke-linejoin:miter;stroke-opacity:1;font-family:Bitstream Vera Sans"
       xml:space="preserve"><tspan
         y="32.732803"
         x="16.601501"
         id="tspan2247"
         sodipodi:role="line">45</tspan></text>
    <text
       id="text2249"
       y="19.400709"
       x="45.530113"
       style="font-size:6.36857796px;font-style:normal;font-weight:normal;fill:#000000;fill-opacity:1;stroke:none;stroke-width:1px;stroke-linecap:butt;stroke-linejoin:miter;stroke-opacity:1;font-family:Bitstream Vera Sans"
       xml:space="preserve"><tspan
         y="19.400709"
         x="45.530113"
         id="tspan2251"
         sodipodi:role="line">90</tspan></text>
    <text
       id="text2253"
       y="32.981483"
       x="72.773872"
       style="font-size:6.36857796px;font-style:normal;font-weight:normal;fill:#000000;fill-opacity:1;stroke:none;stroke-width:1px;stroke-linecap:butt;stroke-linejoin:miter;stroke-opacity:1;font-family:Bitstream Vera Sans"
       xml:space="preserve"><tspan
         y="32.981483"
         x="72.773872"
         id="tspan2255"
         sodipodi:role="line">135</tspan></text>
  </g>
  <use
     x="0"
     y="0"
     xlink:href="#g2239"
     id="use2471"
     transform="translate(0.2040816,48.367347)"
     width="100"
     height="100" />
  <path
     style="fill:none;fill-rule:evenodd;stroke:#000000;stroke-width:3;stroke-linecap:round;stroke-linejoin:miter;stroke-miterlimit:4;stroke-dasharray:6,3;stroke-dashoffset:0;stroke-opacity:1"
     d="M 18.339092,59.767662 C 46.763952,83.702568 46.762948,83.701722 46.762948,83.701722"
     id="path3820" />
  <path
     style="fill:none;fill-rule:evenodd;stroke:#000000;stroke-width:2.5;stroke-linecap:round;stroke-linejoin:miter;stroke-miterlimit:4;stroke-dasharray:5,2.5;stroke-dashoffset:0;stroke-opacity:1"
     d="M 78.769786,11.817867 C 47.351554,35.938086 47.352664,35.937234 47.352664,35.937234"
     id="path3822" />
  <g
     id="g3558"
     transform="matrix(0.6066835,0,0,0.6066835,57.099469,-3.0176416)"
     inkscape:transform-center-x="4.1753722">
    <path
       d="M 49.066773,24.22879 C 49.067972,31.079065 43.515064,36.632947 36.664788,36.632947 C 29.814513,36.632947 24.261604,31.079065 24.262803,24.22879 C 24.261604,17.378514 29.814513,11.824633 36.664788,11.824633 C 43.515064,11.824633 49.067972,17.378514 49.066773,24.22879 L 49.066773,24.22879 z "
       style="fill:#0000ff;fill-opacity:1;fill-rule:evenodd;stroke:#000000;stroke-width:0.38027155px;stroke-linecap:butt;stroke-linejoin:miter;stroke-opacity:1"
       id="path3560" />
    <path
       d="M 45.562914,32.95223 C 40.719885,37.796953 32.866199,37.797641 28.022324,32.953766 C 23.178446,28.109889 23.179135,20.256203 28.023859,15.413176 C 32.866887,10.568451 40.720573,10.567763 45.56445,15.411639 C 50.408325,20.255515 50.407637,28.109202 45.562914,32.95223 L 45.562914,32.95223 z "
       style="opacity:0.71739131;fill:url(#linearGradient3566);fill-opacity:1;fill-rule:evenodd;stroke:none;stroke-width:1px;stroke-linecap:butt;stroke-linejoin:miter;stroke-opacity:1"
       id="path3562" />
    <path
       d="M 39.147988,19.481422 C 39.148661,23.326315 36.031948,26.443576 32.187053,26.443576 C 28.342159,26.443576 25.225445,23.326315 25.226118,19.481422 C 25.225445,15.636527 28.342159,12.519268 32.187053,12.519268 C 36.031948,12.519268 39.148661,15.636527 39.147988,19.481422 L 39.147988,19.481422 z "
       style="fill:url(#radialGradient3568);fill-opacity:1;fill-rule:evenodd;stroke:none;stroke-width:1px;stroke-linecap:butt;stroke-linejoin:miter;stroke-opacity:1"
       id="path3564" />
  </g>
  <use
     x="0"
     y="0"
     xlink:href="#g3558"
     inkscape:transform-center-x="4.7887461"
     id="use2458"
     transform="matrix(1.146903,0,0,1.146903,-74.206995,45.120678)"
     width="100"
     height="100" />
  <use
     x="0"
     y="0"
     xlink:href="#g3558"
     inkscape:transform-center-x="4.7887461"
     id="use2460"
     transform="matrix(1.146903,0,0,1.146903,-42.778424,70.018637)"
     width="100"
     height="100" />
  <use
     x="0"
     y="0"
     xlink:href="#g3558"
     inkscape:transform-center-x="4.1753722"
     id="use2456"
     transform="translate(-31.22449,23.265306)"
     width="100"
     height="100" />
</svg>
